assets/images/payment-methods/clearpay.svg

<svg width="64" height="40" viewBox="0 0 64 40" fill="none" xmlns="http://www.w3.org/2000/svg">
<rect width="64" height="40" fill="white"/>
<path d="M48.4705 17.2083L44.6426 25.1046H43.0568L44.4869 22.1547L42.2402 17.2083H43.8686L45.3129 20.5216L46.8893 17.2083H48.4705Z" fill="black"/>
<path d="M33.9053 20.0119C33.9053 19.1057 33.2209 18.4071 32.3807 18.4071C31.5406 18.4071 30.8562 19.0821 30.8562 20.0119C30.8562 20.9322 31.5406 21.6166 32.3807 21.6166C33.2209 21.6166 33.9053 20.9181 33.9053 20.0119ZM29.4639 25.1046V17.2083H30.8421V17.9351C31.2574 17.4207 31.8757 17.1044 32.612 17.1044C34.1271 17.1044 35.3165 18.3505 35.3165 19.9977C35.3165 21.6449 34.1035 22.9004 32.579 22.9004C31.871 22.9004 31.2905 22.622 30.8845 22.15V25.0999H29.4639V25.1046Z" fill="black"/>
<path d="M40.2908 20.0118C40.2908 19.0678 39.6064 18.4071 38.7663 18.4071C37.9262 18.4071 37.2418 19.082 37.2418 20.0118C37.2418 20.9322 37.9262 21.6166 38.7663 21.6166C39.6064 21.6166 40.2908 20.9511 40.2908 20.0118ZM40.3003 22.8154V22.0886C39.8849 22.5936 39.2666 22.9051 38.5303 22.9051C36.9916 22.9051 35.8258 21.6732 35.8258 20.0118C35.8258 18.3646 37.0388 17.1091 38.5634 17.1091C39.2808 17.1091 39.8849 17.4253 40.3003 17.9162V17.2082H41.6785V22.8154H40.3003Z" fill="black"/>
<path d="M26.9763 17.7557C26.9763 17.7557 27.3255 17.1044 28.1893 17.1044C28.5574 17.1044 28.7934 17.2318 28.7934 17.2318V18.662C28.7934 18.662 28.2742 18.341 27.7975 18.4071C27.3208 18.4732 27.0188 18.9074 27.0188 19.4927V22.8154H25.5934V17.2082H26.9716V17.7557H26.9763Z" fill="black"/>
<path d="M59.1751 16.892L57.542 15.9575L55.8853 15.0088C54.7903 14.381 53.4216 15.1692 53.4216 16.4342V16.6466C53.4216 16.7646 53.4829 16.8731 53.5868 16.9298L54.3561 17.3687C54.5685 17.4914 54.8328 17.3357 54.8328 17.0902V16.5852C54.8328 16.3351 55.1018 16.1793 55.3189 16.302L56.8293 17.1705L58.3349 18.0342C58.552 18.1569 58.552 18.4732 58.3349 18.5959L56.8293 19.4596L55.3189 20.3281C55.1018 20.4508 54.8328 20.295 54.8328 20.0449V19.7947C54.8328 18.5298 53.464 17.7369 52.369 18.3693L50.7124 19.318L49.0793 20.2525C47.9796 20.885 47.9796 22.4756 49.0793 23.1081L50.7124 24.0426L52.369 24.9913C53.464 25.619 54.8328 24.8308 54.8328 23.5659V23.3535C54.8328 23.2355 54.7714 23.1269 54.6676 23.0703L53.8983 22.6314C53.6859 22.5086 53.4216 22.6644 53.4216 22.9098V23.4149C53.4216 23.665 53.1525 23.8208 52.9354 23.6981L51.4251 22.8296L49.9194 21.9659C49.7023 21.8431 49.7023 21.5269 49.9194 21.4042L51.4251 20.5405L52.9354 19.672C53.1525 19.5493 53.4216 19.705 53.4216 19.9552V20.2053C53.4216 21.4703 54.7903 22.2632 55.8853 21.6307L57.542 20.6821L59.1751 19.7475C60.2748 19.1103 60.2748 17.5245 59.1751 16.892Z" fill="black"/>
<path d="M9.74879 20.7245C9.44672 22.013 8.33755 22.9004 6.90272 22.9004C5.24604 22.9004 4 21.6543 4 20.0071C4 18.3599 5.26492 17.1044 6.92632 17.1044C8.32811 17.1044 9.42312 17.9917 9.73935 19.2566H8.28092C8.02132 18.7516 7.50686 18.4165 6.93576 18.4165C6.10506 18.4165 5.41124 19.1009 5.41124 20.0071C5.41124 20.9133 6.10506 21.5977 6.93576 21.5977C7.53046 21.5977 8.04492 21.2626 8.29036 20.7245H9.74879Z" fill="black"/>
<path d="M10.4048 22.8107V14.9002H11.8161V22.8107H10.4048Z" fill="black"/>
<path d="M13.94 20.38C14.0392 21.2107 14.6339 21.678 15.3843 21.678C15.979 21.678 16.4369 21.3995 16.7059 20.9511H18.1502C17.8151 22.1405 16.7484 22.9004 15.3466 22.9004C13.6521 22.9004 12.4675 21.711 12.4675 20.0213C12.4675 18.3316 13.7229 17.1092 15.3796 17.1092C17.0504 17.1092 18.2587 18.341 18.2587 20.0213C18.2587 20.144 18.2493 20.2668 18.2257 20.38H13.94ZM16.7531 19.5021C16.654 18.7753 16.0593 18.3363 15.3654 18.3363C14.6716 18.3363 14.1005 18.7611 13.9542 19.5021H16.7531Z" fill="black"/>
<path d="M23.2994 22.8107V22.0838C22.884 22.5889 22.2704 22.9004 21.5294 22.9004C19.9955 22.9004 18.8297 21.6685 18.8297 20.0071C18.8297 18.3599 20.0379 17.1044 21.5624 17.1044C22.2799 17.1044 22.884 17.4159 23.2994 17.9115V17.2035H24.6776V22.806H23.2994V22.8107ZM23.2852 20.0071C23.2852 19.0678 22.6008 18.4023 21.7607 18.4023C20.9205 18.4023 20.2362 19.0726 20.2362 20.0071C20.2362 20.9275 20.9205 21.6118 21.7607 21.6118C22.6008 21.6118 23.2852 20.9511 23.2852 20.0071Z" fill="black"/>
</svg>

<svg width="64" height="40" fill="none" xmlns="http://www.w3.org/2000/svg">
<path fill="#fff" d="M0 0h64v40H0z"/>
<path d="m48.47 17.208-3.827 7.897h-1.586l1.43-2.95-2.247-4.947h1.629l1.444 3.314 1.576-3.314h1.581ZM33.905 20.012c0-.906-.684-1.605-1.524-1.605s-1.525.675-1.525 1.605c0 .92.685 1.605 1.525 1.605.84 0 1.524-.699 1.524-1.605Zm-4.441 5.093v-7.897h1.378v.727a2.228 2.228 0 0 1 1.77-.83c1.515 0 2.704 1.245 2.704 2.893 0 1.647-1.213 2.902-2.737 2.902-.708 0-1.288-.278-1.695-.75v2.95h-1.42v.005ZM40.29 20.012c0-.944-.684-1.605-1.524-1.605s-1.524.675-1.524 1.605c0 .92.684 1.605 1.524 1.605s1.525-.666 1.525-1.605Zm.01 2.803v-.726a2.245 2.245 0 0 1-1.77.816c-1.538 0-2.704-1.232-2.704-2.893 0-1.647 1.213-2.903 2.737-2.903.718 0 1.322.316 1.737.807v-.708h1.379v5.607H40.3ZM26.976 17.756s.35-.652 1.213-.652c.368 0 .604.128.604.128v1.43s-.519-.321-.995-.255c-.477.066-.78.5-.78 1.086v3.322h-1.425v-5.607h1.379v.548h.004ZM59.175 16.892l-1.633-.934-1.657-.95c-1.095-.627-2.463.161-2.463 1.426v.213a.32.32 0 0 0 .165.283l.77.439a.319.319 0 0 0 .476-.279v-.505c0-.25.269-.406.486-.283l1.51.869 1.506.863a.324.324 0 0 1 0 .562l-1.506.864-1.51.868a.325.325 0 0 1-.486-.283v-.25c0-1.265-1.369-2.058-2.464-1.426l-1.657.949-1.633.934c-1.1.633-1.1 2.224 0 2.856l1.633.935 1.657.948c1.095.628 2.464-.16 2.464-1.425v-.212a.32.32 0 0 0-.165-.284l-.77-.439a.319.319 0 0 0-.476.279v.505c0 .25-.27.406-.487.283l-1.51-.868-1.506-.864a.324.324 0 0 1 0-.562l1.506-.863 1.51-.869a.325.325 0 0 1 .487.283v.25c0 1.265 1.368 2.058 2.463 1.426l1.657-.949 1.633-.934c1.1-.638 1.1-2.224 0-2.856ZM9.749 20.724C9.447 22.014 8.338 22.9 6.903 22.9 5.246 22.9 4 21.654 4 20.007c0-1.647 1.265-2.903 2.926-2.903 1.402 0 2.497.888 2.813 2.153H8.281a1.524 1.524 0 0 0-1.345-.84c-.83 0-1.525.684-1.525 1.59s.694 1.59 1.525 1.59a1.47 1.47 0 0 0 1.354-.873H9.75ZM10.405 22.81V14.9h1.411v7.91h-1.411ZM13.94 20.38c.1.83.694 1.298 1.444 1.298.595 0 1.053-.279 1.322-.727h1.444c-.335 1.19-1.402 1.95-2.803 1.95-1.695 0-2.88-1.19-2.88-2.88s1.256-2.912 2.913-2.912c1.67 0 2.879 1.232 2.879 2.912 0 .123-.01.246-.033.359H13.94Zm2.813-.878c-.099-.727-.694-1.166-1.388-1.166-.693 0-1.264.425-1.41 1.166h2.798ZM23.3 22.81v-.726c-.416.505-1.03.816-1.77.816-1.535 0-2.7-1.231-2.7-2.893 0-1.647 1.208-2.903 2.732-2.903.718 0 1.322.312 1.737.808v-.709h1.379v5.603h-1.379v.005Zm-.015-2.803c0-.94-.684-1.605-1.524-1.605s-1.525.67-1.525 1.605c0 .92.684 1.605 1.525 1.605.84 0 1.524-.66 1.524-1.605Z" fill="#000"/>
</svg>
